X:288
T:Drifting on the Dreamy Juniata
C:Jonathan Jensen, 2011
N:For the dance "Juniata" by Sharon Green
L:1/4
M:3/4
R:Triple-time
%%MIDI beat 100 95 80
S:Colin Hume's website,  colinhume.com  - chords can also be printed below the stave.
Q:1/4=120
K:F
P:A
|: "F"A>G A/B/ | "Am"cdc | "Dm"F>E F/G/ | "/C"A3 |\
"Bb"D>E F/D/ | "C7"E>F G/E/ |1 "F"Fc2- | "C7"c3 :|2 "F"GF2- | "/"F3 |
P:B
"Bb"d>c B/c/ | "/"d3 | "A7"^c>=B A/B/ | "/"^c3 | "D7"=c>=B A/B/ | "/"cd>A | "G7"GF D | "C7"G3 ||
P:C
"F"A>G A/B/ | "C/E"cdc | "Dm"F>E F/G/ | "/C"A3 | "Bb"D>E F/D/ | "C"EFG |\
"F"AB "(Cm6)"c | "D7"d3 | "G7"D>E F/D/ | "C7"E>F G/E/ | "F"GF2- | "/"F3 |]

